libs/assets/src/lib/icons/ShieldCheck.svg

<svg xmlns="http://www.w3.org/2000/svg" fill="none" viewBox="0 0 24 22">
  <path fill="currentColor" d="M19.5 1.625h-15c-.39782 0-.77936.15804-1.06066.43934C3.15804 2.34564 3 2.72718 3 3.125v5.25c0 4.9425 2.3925 7.9378 4.39969 9.5803 2.16187 1.7681 4.31251 2.3681 4.40621 2.3935.1289.035.2649.035.3938 0 .0937-.0254 2.2416-.6254 4.4062-2.3935C18.6075 16.3128 21 13.3175 21 8.375v-5.25c0-.39782-.158-.77936-.4393-1.06066-.2813-.2813-.6629-.43934-1.0607-.43934Zm0 6.75c0 3.4753-1.2806 6.2962-3.8063 8.3831-1.0994.9054-2.3497 1.6099-3.6937 2.0813-1.3264-.4632-2.5613-1.1552-3.64875-2.0447C5.79563 14.7041 4.5 11.8719 4.5 8.375v-5.25h15v5.25ZM7.71937 11.1556c-.14073-.1407-.21979-.3316-.21979-.5306 0-.199.07906-.3899.21979-.5306.14074-.14076.33161-.21982.53063-.21982.19902 0 .38989.07906.53063.21982L10.5 11.8147l4.7194-4.72033c.0697-.06968.1524-.12495.2434-.16267.0911-.03771.1887-.05712.2872-.05712s.1961.01941.2872.05712c.091.03772.1737.09299.2434.16267.0697.06969.125.15241.1627.24346.0377.09104.0571.18862.0571.28717 0 .09855-.0194.19613-.0571.28717-.0377.09105-.093.17377-.1627.24346l-5.25 5.24997c-.0696.0698-.1523.1251-.2434.1628-.091.0378-.1886.0572-.2872.0572-.0986 0-.1962-.0194-.2872-.0572-.0911-.0377-.1738-.093-.24343-.1628l-2.25-2.25Z"/>
</svg>

<svg width="24" height="22" viewBox="0 0 24 22" fill="none" xmlns="http://www.w3.org/2000/svg">
<path d="M19.5 1.625H4.5C4.10218 1.625 3.72064 1.78304 3.43934 2.06434C3.15804 2.34564 3 2.72718 3 3.125V8.375C3 13.3175 5.3925 16.3128 7.39969 17.9553C9.56156 19.7234 11.7122 20.3234 11.8059 20.3488C11.9348 20.3838 12.0708 20.3838 12.1997 20.3488C12.2934 20.3234 14.4413 19.7234 16.6059 17.9553C18.6075 16.3128 21 13.3175 21 8.375V3.125C21 2.72718 20.842 2.34564 20.5607 2.06434C20.2794 1.78304 19.8978 1.625 19.5 1.625ZM19.5 8.375C19.5 11.8503 18.2194 14.6712 15.6937 16.7581C14.5943 17.6635 13.344 18.368 12 18.8394C10.6736 18.3762 9.4387 17.6842 8.35125 16.7947C5.79563 14.7041 4.5 11.8719 4.5 8.375V3.125H19.5V8.375ZM7.71937 11.1556C7.57864 11.0149 7.49958 10.824 7.49958 10.625C7.49958 10.426 7.57864 10.2351 7.71937 10.0944C7.86011 9.95364 8.05098 9.87458 8.25 9.87458C8.44902 9.87458 8.63989 9.95364 8.78063 10.0944L10.5 11.8147L15.2194 7.09437C15.2891 7.02469 15.3718 6.96942 15.4628 6.9317C15.5539 6.89399 15.6515 6.87458 15.75 6.87458C15.8485 6.87458 15.9461 6.89399 16.0372 6.9317C16.1282 6.96942 16.2109 7.02469 16.2806 7.09437C16.3503 7.16406 16.4056 7.24678 16.4433 7.33783C16.481 7.42887 16.5004 7.52645 16.5004 7.625C16.5004 7.72355 16.481 7.82113 16.4433 7.91217C16.4056 8.00322 16.3503 8.08594 16.2806 8.15563L11.0306 13.4056C10.961 13.4754 10.8783 13.5307 10.7872 13.5684C10.6962 13.6062 10.5986 13.6256 10.5 13.6256C10.4014 13.6256 10.3038 13.6062 10.2128 13.5684C10.1217 13.5307 10.039 13.4754 9.96937 13.4056L7.71937 11.1556Z" fill="#4F1650"/>
</svg>
